assets/images/fb.svg

<svg height="20" viewBox="0 0 20 20" width="20" xmlns="http://www.w3.org/2000/svg"><path d="m20 33.1v17.79a1.1 1.1 0 0 1 -1.1 1.11h-5.1v-7.746h2.6l.388-3.018h-2.993v-1.928c0-.875.241-1.469 1.5-1.469h1.6v-2.7a21.488 21.488 0 0 0 -2.33-.121 3.639 3.639 0 0 0 -3.884 3.991v2.228h-2.614v3.018h2.607v7.745h-9.574a1.105 1.105 0 0 1 -1.1-1.1v-17.8a1.105 1.105 0 0 1 1.1-1.1h17.79a1.106 1.106 0 0 1 1.11 1.1z" fill="#fff" transform="translate(0 -32)"/></svg>

<svg xmlns="http://www.w3.org/2000/svg" width="20" height="20" viewBox="0 0 20 20"><defs><style>.a{fill:#fff;}</style></defs><path class="a" d="M20,33.1v17.79A1.1,1.1,0,0,1,18.9,52H13.8V44.254h2.6l.388-3.018H13.795V39.308c0-.875.241-1.469,1.5-1.469h1.6v-2.7a21.488,21.488,0,0,0-2.33-.121,3.639,3.639,0,0,0-3.884,3.991v2.228H8.067v3.018h2.607V52H1.1A1.105,1.105,0,0,1,0,50.9V33.1A1.105,1.105,0,0,1,1.1,32h17.79A1.106,1.106,0,0,1,20,33.1Z" transform="translate(0 -32)"/></svg>
